src/shared/assets/character/main/character-main-share.svg

<svg width="23" height="20" viewBox="0 0 23 20" fill="none" xmlns="http://www.w3.org/2000/svg">
<g clip-path="url(#clip0_625_5436)">
<path d="M13.7283 1.75282C13.7283 1.30643 14.2688 1.08378 14.5832 1.40064L21.6695 8.5421C22.0566 8.9322 22.0563 9.56156 21.6689 9.95137L14.583 17.0815C14.2684 17.398 13.7283 17.1753 13.7283 16.7291V13.409C13.7283 13.1543 13.541 12.9428 13.2865 12.9317C11.6355 12.8592 5.70181 12.9567 1.37591 17.6372C1.02355 18.0185 0.391125 17.749 0.517908 17.2456C1.45058 13.5422 4.44698 5.78849 13.2212 5.50022C13.4971 5.49116 13.7283 5.2681 13.7283 4.99196V1.75282Z" fill="black"/>
</g>
<defs>
<clipPath id="clip0_625_5436">
<rect width="22.3633" height="20" fill="white"/>
</clipPath>
</defs>
</svg>

<svg xmlns="http://www.w3.org/2000/svg" fill="none" viewBox="0 0 23 20"><g clip-path="url(#a)"><path fill="#000" d="M13.728 1.753a.5.5 0 0 1 .855-.352l7.086 7.141a1 1 0 0 1 0 1.41l-7.086 7.13a.5.5 0 0 1-.855-.353v-3.32a.466.466 0 0 0-.441-.477c-1.652-.073-7.585.025-11.911 4.705-.352.381-.985.112-.858-.391C1.45 13.542 4.447 5.788 13.22 5.5a.52.52 0 0 0 .507-.508z"/></g><defs><clipPath id="a"><path fill="#fff" d="M0 0h22.363v20H0z"/></clipPath></defs></svg>
